X:7
T:Off to California
R:hornpipe
Z:id:hn-hornpipe-7
M:C|
K:G
(3DEF|GFGB AG (3DEF|GBdg e2 (3def|gfgd edBG|ABAG E2
(3DEF|GFGB AG (3DEF|GBdg e2 (3def|gfgd edBG|(3ABA GF G2:|
|:zg|gfeg fedf|edef edBd|gfgd edBG|ABAG E2
(3DEF|GFGB AG (3DEF|GBdg e2 (3def|gfgd edBG|(3ABA GF G2:|
P:Variations:
(3DEF|G2BG AGED|GBdg e2 (3def|(3gag (3fgf edBG|ABAG E2
(3DEF|G2BG AGED|GBdg e2 (3def|(3gag (3fgf edBG|AGFA G2:|
|:zg|gf (3efg fedf|edef edBd|~g3d edBG|ABAG E2
(3DEF|G2BG AGED|GBdg e2 (3def|(3gag (3fgf edBG|AGFA G2:|

